findly-builder/apps/searchassist/src/assets/icons/facets/rangeslider.svg

<svg width="12" height="12" viewBox="0 0 12 12" fill="none" xmlns="http://www.w3.org/2000/svg">
<path fill-rule="evenodd" clip-rule="evenodd" d="M7.84615 0C7.2476 0 6.73918 0.389423 6.54808 0.923077H0.461538C0.206637 0.923077 0 1.12971 0 1.38462C0 1.63952 0.206638 1.84615 0.461538 1.84615H6.54808C6.73918 2.37981 7.2476 2.76923 7.84615 2.76923C8.44471 2.76923 8.95312 2.37981 9.14423 1.84615H10.6154C10.8703 1.84615 11.0769 1.63952 11.0769 1.38462C11.0769 1.12971 10.8703 0.923077 10.6154 0.923077H9.14423C8.95312 0.389423 8.44471 0 7.84615 0ZM7.84615 0.923077C8.10577 0.923077 8.30769 1.125 8.30769 1.38462C8.30769 1.64423 8.10577 1.84615 7.84615 1.84615C7.58654 1.84615 7.38462 1.64423 7.38462 1.38462C7.38462 1.125 7.58654 0.923077 7.84615 0.923077ZM3.23077 4.61538C2.63221 4.61538 2.1238 5.00481 1.93269 5.53846H0.461538C0.206638 5.53846 0 5.7451 0 6C0 6.2549 0.206638 6.46154 0.461538 6.46154H1.93269C2.1238 6.99519 2.63221 7.38462 3.23077 7.38462C3.82933 7.38462 4.33774 6.99519 4.52885 6.46154H10.6154C10.8703 6.46154 11.0769 6.2549 11.0769 6C11.0769 5.7451 10.8703 5.53846 10.6154 5.53846H4.52885C4.33774 5.00481 3.82933 4.61538 3.23077 4.61538ZM3.23077 5.53846C3.49038 5.53846 3.69231 5.74038 3.69231 6C3.69231 6.25962 3.49038 6.46154 3.23077 6.46154C2.97115 6.46154 2.76923 6.25962 2.76923 6C2.76923 5.74038 2.97115 5.53846 3.23077 5.53846ZM7.84615 9.23077C7.2476 9.23077 6.73918 9.62019 6.54808 10.1538H0.461538C0.206638 10.1538 0 10.3605 0 10.6154C0 10.8703 0.206638 11.0769 0.461539 11.0769H6.54808C6.73918 11.6106 7.2476 12 7.84615 12C8.44471 12 8.95312 11.6106 9.14423 11.0769H10.6154C10.8703 11.0769 11.0769 10.8703 11.0769 10.6154C11.0769 10.3605 10.8703 10.1538 10.6154 10.1538H9.14423C8.95312 9.62019 8.44471 9.23077 7.84615 9.23077ZM7.84615 10.1538C8.10577 10.1538 8.30769 10.3558 8.30769 10.6154C8.30769 10.875 8.10577 11.0769 7.84615 11.0769C7.58654 11.0769 7.38462 10.875 7.38462 10.6154C7.38462 10.3558 7.58654 10.1538 7.84615 10.1538Z" fill="#202124"/>
</svg>

<svg width="12" height="12" fill="none" xmlns="http://www.w3.org/2000/svg"><path fill-rule="evenodd" clip-rule="evenodd" d="M7.846 0C7.248 0 6.74.39 6.548.923H.462a.462.462 0 1 0 0 .923h6.086c.191.534.7.923 1.298.923.599 0 1.107-.39 1.298-.923h1.471a.461.461 0 1 0 0-.923h-1.47A1.386 1.386 0 0 0 7.845 0Zm0 .923c.26 0 .462.202.462.462s-.202.461-.462.461a.456.456 0 0 1-.461-.461c0-.26.202-.462.461-.462ZM3.231 4.615c-.599 0-1.107.39-1.298.923H.462a.462.462 0 0 0 0 .924h1.47c.192.533.7.923 1.299.923.598 0 1.107-.39 1.298-.923h6.086a.462.462 0 0 0 0-.924H4.53a1.386 1.386 0 0 0-1.298-.923Zm0 .923c.26 0 .461.202.461.462s-.202.462-.461.462A.456.456 0 0 1 2.769 6c0-.26.202-.462.462-.462Zm4.615 3.693c-.598 0-1.107.39-1.298.923H.462a.462.462 0 0 0 0 .923h6.086c.191.534.7.923 1.298.923.599 0 1.107-.39 1.298-.923h1.471a.461.461 0 1 0 0-.923h-1.47a1.386 1.386 0 0 0-1.299-.923Zm0 .923c.26 0 .462.202.462.461 0 .26-.202.462-.462.462a.456.456 0 0 1-.461-.462c0-.26.202-.461.461-.461Z" fill="#202124"/></svg>
